X:1
T: Waldridge Fell
C: Alexander Forster Ms 1755
S: Beamish Museum
S: Noel <noelbats:onetel.com> tradtunes 2009-3-3
M: 6/8
R: Jig
L: 1/8
Z: Noel Jackson
K: G
D \
| DGG  BGG | cGG  BGG | ded dcB | BAA A2d \
| DGG  BGG | cGG  BGG | ded dcB | AGG G2 :|
B \
| d^cd efg | d^cd efg | ded dcB | BAA A2B \
| d^cd efg | d^cd efg | ded dcB | AGG G2B |]
| d^cd efg | d^cd efg | ded dcB | BAA A2D \
| DGG  BGG | cGG  BGG | ded cBA | AGG G2 |]
